X:203
U: ~ = !turn!
%%topmargin 3cm
T:The Ten Pound Float
B:Traditional Irish Fiddle Tunes. Randy Miller and Jack Perron.
Z:Transcribed by Ralph Palmer
R:Reel
L:1/8
M:C|
K:G
"(A"[|]G2 BG ((3ABA) BA | GE (3.E.E.E cEGE "A)"| DGBG A2 BA | GEED EGGA |
((3BcB) GB ((3ABA) BA | GE (3.E.E.E cEGE | DGBG AcBA | GEED EGGA ::
G2 Bd ef ((3gfe) | dBBB dBBA | G2 Bd efge | dBAG EGDE |
G2 Bd efge | dBAB dega | ((3bag) ag egde | gedB AGED :|]
xxxx "(A" || ((3BcB) GB ((3ABA) BA | GECE G,EGE "A)" || xxxx xxxx [|]
